public/library/nest-icon-light.svg

<svg width="338" height="338" viewBox="0 0 338 338" fill="none" xmlns="http://www.w3.org/2000/svg">
<circle cx="169" cy="169" r="169" fill="url(#paint0_linear_931_2775)"/>
<path d="M169.496 38C97.54 38 39 96.54 39 168.504C39 240.467 97.54 299 169.496 299C241.453 299 300 240.46 300 168.504C300 96.547 241.46 38 169.496 38ZM231.53 136.656C237.481 138.079 243.066 139.719 248.221 141.572C269.54 149.227 274.209 157.066 274.209 159.446C274.209 161.827 269.54 169.659 248.221 177.314C245.334 178.349 242.305 179.328 239.15 180.23C239.263 178.582 239.319 176.92 239.319 175.243C239.319 163.405 236.551 149.812 231.53 136.656ZM169.496 63.3542C209.993 63.3542 245.221 86.3701 262.779 120.014C260.856 119.218 258.863 118.45 256.792 117.711C244.904 113.443 231.1 110.147 216.12 107.935C211.063 101.026 205.302 94.9483 198.971 90.2014C190.153 83.6093 180.223 79.609 169.504 79.609C158.784 79.609 148.854 83.6093 140.036 90.2014C133.698 94.9483 127.944 101.026 122.887 107.935C107.907 110.147 94.1031 113.443 82.2148 117.711C80.123 118.464 78.1229 119.232 76.2213 120.014C93.772 86.3701 129 63.3542 169.496 63.3542ZM213.965 175.243C213.965 178.878 213.578 182.42 212.852 185.822C199.358 187.85 184.688 188.907 169.504 188.907C154.319 188.907 139.642 187.85 126.148 185.822C125.422 182.42 125.035 178.878 125.035 175.243C125.035 162.144 129.951 145.417 137.74 131.592C138.417 130.374 139.128 129.183 139.853 128.014C148.988 113.365 159.791 104.963 169.504 104.963C179.216 104.963 190.019 113.365 199.154 128.014C199.879 129.183 200.591 130.374 201.267 131.592C209.056 145.417 213.965 162.144 213.965 175.243ZM99.85 180.23C96.6948 179.328 93.6664 178.349 90.7788 177.314C69.4602 169.659 64.7908 161.82 64.7908 159.446C64.7908 157.073 69.4602 149.227 90.7788 141.572C95.9342 139.719 101.519 138.079 107.47 136.656C102.449 149.812 99.681 163.405 99.681 175.243C99.681 176.92 99.7373 178.582 99.85 180.23ZM169.496 273.646C142.67 273.646 118.161 263.546 99.5612 246.946C121.176 252.637 144.952 255.637 169.504 255.637C194.055 255.637 217.824 252.637 239.439 246.946C220.839 263.546 196.323 273.646 169.496 273.646ZM265.906 210.465C252.362 217.043 236.833 222.085 220.05 225.438C204.126 228.621 187.068 230.283 169.504 230.283C151.939 230.283 134.874 228.621 118.95 225.438C102.167 222.085 86.6377 217.043 73.0943 210.465C70.9181 205.492 69.1222 200.316 67.7347 194.985C72.0872 197.21 76.9186 199.274 82.2148 201.175C89.8281 203.908 98.2231 206.246 107.217 208.148C118.302 210.507 130.289 212.211 142.811 213.211C151.488 213.902 160.432 214.261 169.504 214.261C178.575 214.261 187.512 213.902 196.189 213.211C208.711 212.211 220.698 210.507 231.783 208.148C240.777 206.246 249.172 203.908 256.792 201.175C262.257 199.217 267.054 197.147 271.258 195.013C269.871 200.337 268.075 205.499 265.906 210.465Z" fill="url(#paint1_linear_931_2775)"/>
<defs>
<linearGradient id="paint0_linear_931_2775" x1="169" y1="0" x2="169" y2="338" gradientUnits="userSpaceOnUse">
<stop stop-color="#EBF7EC"/>
<stop offset="1" stop-color="#BDC4BE"/>
</linearGradient>
<linearGradient id="paint1_linear_931_2775" x1="169.5" y1="38" x2="169.5" y2="299" gradientUnits="userSpaceOnUse">
<stop stop-color="#49A078"/>
<stop offset="1" stop-color="#285F46"/>
</linearGradient>
</defs>
</svg>

<svg xmlns="http://www.w3.org/2000/svg" width="338" height="338" fill="none" viewBox="0 0 338 338"><circle cx="169" cy="169" r="169" fill="url(#a)"/><path fill="url(#b)" d="M169.496 38C97.54 38 39 96.54 39 168.504 39 240.467 97.54 299 169.496 299S300 240.46 300 168.504 241.46 38 169.496 38m62.034 98.656c5.951 1.423 11.536 3.063 16.691 4.916 21.319 7.655 25.988 15.494 25.988 17.874 0 2.381-4.669 10.213-25.988 17.868a145 145 0 0 1-9.071 2.916q.17-2.472.169-4.987c0-11.838-2.768-25.431-7.789-38.587m-62.034-73.302c40.497 0 75.725 23.016 93.283 56.66a129 129 0 0 0-5.987-2.303c-11.888-4.268-25.692-7.564-40.672-9.776-5.057-6.909-10.818-12.987-17.149-17.734-8.818-6.592-18.748-10.592-29.467-10.592-10.72 0-20.65 4-29.468 10.592-6.338 4.747-12.092 10.825-17.149 17.734-14.98 2.212-28.784 5.508-40.672 9.776a144 144 0 0 0-5.994 2.303C93.772 86.37 129 63.354 169.496 63.354m44.469 111.889c0 3.635-.387 7.177-1.113 10.579-13.494 2.028-28.164 3.085-43.348 3.085-15.185 0-29.862-1.057-43.356-3.085a50.7 50.7 0 0 1-1.113-10.579c0-13.099 4.916-29.826 12.705-43.651a87 87 0 0 1 2.113-3.578c9.135-14.649 19.938-23.051 29.651-23.051 9.712 0 20.515 8.402 29.65 23.051a86 86 0 0 1 2.113 3.578c7.789 13.825 12.698 30.552 12.698 43.651M99.85 180.23a145 145 0 0 1-9.071-2.916C69.46 169.659 64.79 161.82 64.79 159.446s4.67-10.219 25.988-17.874c5.155-1.853 10.74-3.493 16.691-4.916-5.021 13.156-7.789 26.749-7.789 38.587q0 2.515.169 4.987m69.646 93.416c-26.826 0-51.335-10.1-69.935-26.7 21.615 5.691 45.391 8.691 69.943 8.691 24.551 0 48.32-3 69.935-8.691-18.6 16.6-43.116 26.7-69.943 26.7m96.41-63.181c-13.544 6.578-29.073 11.62-45.856 14.973-15.924 3.183-32.982 4.845-50.546 4.845-17.565 0-34.63-1.662-50.554-4.845-16.783-3.353-32.312-8.395-45.856-14.973a104 104 0 0 1-5.36-15.48c4.353 2.225 9.185 4.289 14.48 6.19 7.614 2.733 16.01 5.071 25.003 6.973 11.085 2.359 23.072 4.063 35.594 5.063a337 337 0 0 0 26.693 1.05c9.071 0 18.008-.359 26.685-1.05 12.522-1 24.509-2.704 35.594-5.063 8.994-1.902 17.389-4.24 25.009-6.973 5.465-1.958 10.262-4.028 14.466-6.162a104 104 0 0 1-5.352 15.452"/><defs><linearGradient id="a" x1="169" x2="169" y1="0" y2="338" gradientUnits="userSpaceOnUse"><stop stop-color="#ebf7ec"/><stop offset="1" stop-color="#bdc4be"/></linearGradient><linearGradient id="b" x1="169.5" x2="169.5" y1="38" y2="299" gradientUnits="userSpaceOnUse"><stop stop-color="#49a078"/><stop offset="1" stop-color="#285f46"/></linearGradient></defs></svg>
